X:1
T:James Gibb editions
T:Ye servants of the Lord - Barnby
%%score [ ( 1 2 ) ( 3 4 ) ]
L:1/8
Q:1/4=90
M:4/4
K:D
V:1 treble nm="Midi_74"
V:2 treble 
V:3 bass nm="Midi_74"
V:4 bass 
V:1
"^St Agatha (S.M.)""^Ye servants of the Lord""^Joseph Barnby\n(1838-96)""^Philip Doddridge\n(1702-51)" A2 | %1
 d2 c2 d2 B2 | A6 || c2 | d2 B2 B2 ^A2 | B6 ||[M:4/4] A2 | d2 c2 d2 A2 | B2 A2 G2 || A2 | %10
 F2 G2 E2 E2 | D6 || G4 F4 |] %13
V:2
 D2 | F2 E2 F2 D2 | C6 || E2 | F2 E2 D2 C2 | D6 ||[M:4/4] E2 | F2 E2 D2 D2 | D2 ^D2 E2 || E2 | %10
 D2 D2 D2 C2 | D6 || D4 D4 |] %13
V:3
 F,2 | A,2 A,2 A,2 ^G,2 | A,6 || A,2 | A,2 G,2 F,2 F,2 | F,6 || %6
[M:4/4]"^1 Ye servants of the Lord,\neach in his office wait,\nobservant of his heavenly word,\nand watchful at his gate.\n\n2 Let all your lamps be bright,\nand trim the golden flame;\ngird up your loins as in his sight,\nfor aweful is his name.\n\n" A,2 | %7
 A,2 G,2 A,2"^5 Christ shall the banquet spread\nwith his own royal hand,\nand raise that faithful servant's head\namid the angelic band." F,2 | %8
 G,2 B,2 B,2 || %9
"^3 Watch! 'tis your Lord's command,\nand while we speak, he's near;\nmark the first signal of his hand,\nand ready all appear.\n\n4 O happy servant he\nin such a posture found!\nhe shall his Lord with rapture see,\nand be with honour crowned.\n\n\n" A,2 | %10
 A,2 G,2 A,3 G, | F,6 || B,4 A,4 |] %13
V:4
 D,2 | D,2 A,,2 D,2- E,2 | A,,6 || A,2 | D,2 E,2 F,2 F,2 | B,,6 ||[M:4/4] C,2 | D,2 E,2 F,2 D,2 | %8
 G,2 F,2 E,2 || C,2 | D,2 B,,2 A,,2 A,,2 | D,6 || G,,4 D,4 |] %13

